X:146
T:RVW2/2/146 The Buffalo
C:Mr. Leary, Salisbury, Wiltshire, September 1904
L:1/8
Q:1/4=130
M:4/4
I:linebreak $
K:G
"^(Editorial suggestion " GA | B3 G G2 E2 | c3 A F2 D2 | D2 G2 G2 G2 | G6 B2 | B3 G G2 E2 |$ 
c3 A F2 D2 | D2 G2 G2 G2 | G6 FG | A3 F DEFG | A3 B c2 d2 |$ B2 G2 G2 AB | c6 Bc | d3 B g2 e2 | 
d3"^(a)" c B2 A2 | B3 G G2 G2 | G3 A BA G2 |$ A3 F D2 D2 | D6 Bc | B3 G g2 e2 | d3"^(b)" c B2 A2 | 
B3 G G2 G2 | G4 z2 ||$ GA | B3 G G2 E2 | c3 A F2 D2 | D2 G2 G2 G2 | G6 B2 | B3 G G2 E2 |$ 
c3 A F2 D2 | D2 G2 G2 G2 | G6 FG | A3 G DEFG | c3 B c2 d2 |$ B2 G2 G2 AB | c6 Bc | d3 B g2 e2 | 
d3"^(a) var." B G2 A2 | B3 G G2 G2 | G3 A BA G2 |$ A3 F D2 D2 | D6 Bc | B3 G g2 e2 | 
d3"^(b) var." B G2 A2 | B3 G G2 G2 | G4 z2 |] 



